paymentMethods/amazonPay.svg

<svg width="128" height="64" viewBox="0 0 128 64" fill="none" xmlns="http://www.w3.org/2000/svg">
<rect width="128" height="64" rx="6" fill="white"/>
<path fill-rule="evenodd" clip-rule="evenodd" d="M51.7749 43.1744C47.4907 46.3361 41.2758 48.0198 35.9402 48.0198C28.7846 48.0609 21.8718 45.4266 16.5583 40.6338C16.158 40.2596 16.5172 39.777 16.9999 40.0576C22.8989 43.4316 29.5784 45.2028 36.3742 45.1949C41.4519 45.1715 46.4748 44.144 51.1538 42.1716C51.8797 41.8648 52.4858 42.6468 51.7749 43.1744Z" fill="#F79C34"/>
<path fill-rule="evenodd" clip-rule="evenodd" d="M53.5597 41.1352C53.0134 40.4317 49.9377 40.8022 48.5533 40.9705C48.1342 41.0192 48.0706 40.6525 48.4485 40.3868C50.9031 38.6657 54.9216 39.1633 55.3893 39.7395C55.857 40.3158 55.2658 44.353 52.9685 46.2762C52.613 46.5718 52.2763 46.4147 52.4334 46.0218C52.9498 44.7496 54.1097 41.8386 53.5597 41.1352Z" fill="#F79C34"/>
<path fill-rule="evenodd" clip-rule="evenodd" d="M48.6618 28.2115V26.5389C48.6608 26.4844 48.6706 26.4302 48.6906 26.3794C48.7105 26.3286 48.7403 26.2823 48.7782 26.243C48.816 26.2038 48.8613 26.1724 48.9113 26.1506C48.9613 26.1288 49.0151 26.1171 49.0697 26.1161H56.5942C56.6487 26.1141 56.7031 26.1229 56.7543 26.1419C56.8054 26.161 56.8523 26.1899 56.8923 26.2271C56.9323 26.2643 56.9645 26.309 56.9872 26.3586C57.0098 26.4083 57.0225 26.4619 57.0244 26.5165V27.9757C57.0244 28.2189 56.8187 28.5295 56.4595 29.0309L52.5606 34.576C54.0438 34.4978 55.5212 34.8155 56.8411 35.4965C56.9574 35.5613 57.0553 35.6549 57.1253 35.7681C57.1954 35.8814 57.2354 36.0107 57.2415 36.1438V37.9286C57.2415 38.0357 57.1989 38.1385 57.1231 38.2143C57.0473 38.2901 56.9445 38.3327 56.8374 38.3327C56.786 38.3321 56.7353 38.322 56.6877 38.3027C55.4629 37.6671 54.1033 37.3353 52.7234 37.3353C51.3435 37.3353 49.9839 37.6671 48.7591 38.3027C48.4972 38.4412 48.224 38.1605 48.224 37.9286V36.2486C48.1995 35.8449 48.2973 35.4433 48.5047 35.0961L52.9947 28.6343H49.0846C49.0296 28.6348 48.975 28.6244 48.924 28.6038C48.8729 28.5832 48.8265 28.5527 48.7872 28.5142C48.7479 28.4756 48.7167 28.4297 48.6951 28.379C48.6736 28.3284 48.6623 28.274 48.6618 28.2189V28.2115Z" fill="#333E47"/>
<path fill-rule="evenodd" clip-rule="evenodd" d="M21.2728 38.6732H18.9904C18.8891 38.6695 18.7923 38.6298 18.7176 38.5613C18.6428 38.4927 18.595 38.3997 18.5826 38.299V26.5689C18.5831 26.5123 18.5948 26.4563 18.6172 26.4042C18.6395 26.3521 18.672 26.3051 18.7128 26.2657C18.7535 26.2263 18.8017 26.1955 18.8545 26.175C18.9073 26.1544 18.9637 26.1446 19.0204 26.1461H21.1494C21.252 26.148 21.3506 26.1869 21.4269 26.2557C21.5032 26.3244 21.5521 26.4184 21.5647 26.5203V28.0506H21.6096C22.1634 26.5539 23.2073 25.8804 24.6029 25.8804C25.9986 25.8804 26.9265 26.5689 27.5663 28.0506C27.7779 27.493 28.1337 27.0016 28.5974 26.6267C29.0611 26.2517 29.616 26.0066 30.2055 25.9164C30.795 25.8262 31.3979 25.8941 31.9525 26.1133C32.5071 26.3325 32.9936 26.695 33.3622 27.1638C34.088 28.1479 33.9384 29.5772 33.9384 30.8382V38.2504C33.9379 38.3064 33.9264 38.3618 33.9045 38.4133C33.8826 38.4649 33.8508 38.5117 33.8108 38.5509C33.7708 38.5902 33.7235 38.6212 33.6716 38.6422C33.6197 38.6632 33.5641 38.6737 33.5081 38.6732H31.2257C31.1171 38.6667 31.0149 38.6196 30.9393 38.5413C30.8638 38.463 30.8204 38.3592 30.8178 38.2504V32.028C30.8515 31.2952 30.829 30.561 30.7505 29.8316C30.5821 29.0422 30.0695 28.8214 29.411 28.8214C29.1135 28.8278 28.8247 28.9227 28.5815 29.094C28.3382 29.2652 28.1515 29.5051 28.0453 29.783C27.8095 30.3742 27.832 31.362 27.832 32.028V38.2392C27.8315 38.2958 27.8197 38.3518 27.7974 38.4039C27.775 38.4559 27.7425 38.503 27.7018 38.5424C27.661 38.5818 27.6128 38.6126 27.56 38.6331C27.5072 38.6537 27.4508 38.6635 27.3942 38.662H25.1118C25.0068 38.6538 24.9084 38.6074 24.8353 38.5316C24.7622 38.4557 24.7194 38.3557 24.7152 38.2504V32.028C24.7152 30.7222 24.9284 28.7989 23.3083 28.7989C21.6882 28.7989 21.7218 30.681 21.7218 32.028V38.2392C21.7228 38.2958 21.7125 38.3521 21.6915 38.4047C21.6706 38.4573 21.6393 38.5052 21.5996 38.5456C21.5599 38.586 21.5125 38.6181 21.4603 38.64C21.408 38.6619 21.3519 38.6732 21.2953 38.6732H21.2728Z" fill="#333E47"/>
<path fill-rule="evenodd" clip-rule="evenodd" d="M63.4975 28.2863C61.8138 28.2863 61.7053 30.58 61.7053 32.028C61.7053 33.476 61.6866 36.518 63.4751 36.518C65.2636 36.518 65.3459 34.0522 65.3459 32.5481C65.3827 31.5006 65.268 30.4534 65.0054 29.4387C64.9386 29.0954 64.7482 28.7885 64.4703 28.5761C64.1925 28.3638 63.8463 28.2606 63.4975 28.2863V28.2863ZM63.4751 25.8954C66.865 25.8954 68.7134 28.8064 68.7134 32.5032C68.7134 36.0802 66.6892 38.9164 63.4751 38.9164C60.1525 38.9164 58.3378 36.0054 58.3378 32.3797C58.3378 28.754 60.1712 25.8991 63.4751 25.8991V25.8954Z" fill="#333E47"/>
<path fill-rule="evenodd" clip-rule="evenodd" d="M73.0949 38.6732H70.8162C70.7067 38.6693 70.603 38.623 70.5269 38.5442C70.4508 38.4653 70.4083 38.36 70.4084 38.2504V26.5277C70.423 26.4226 70.4756 26.3265 70.5563 26.2576C70.6369 26.1886 70.7401 26.1516 70.8462 26.1536H72.9827C73.0769 26.1556 73.1679 26.1886 73.2415 26.2474C73.3152 26.3063 73.3676 26.3876 73.3905 26.4791V28.2863H73.4317C74.0715 26.6811 74.9657 25.9178 76.5447 25.9178C77.071 25.8932 77.5945 26.0078 78.0622 26.2503C78.53 26.4927 78.9255 26.8543 79.2088 27.2985C79.8075 28.2339 79.8075 29.8129 79.8075 30.9466V38.3028C79.7928 38.4079 79.7402 38.504 79.6596 38.5729C79.5789 38.6418 79.4758 38.6788 79.3697 38.6769H77.0611C76.9602 38.6718 76.8642 38.6316 76.7898 38.5633C76.7153 38.495 76.667 38.4028 76.6532 38.3028V31.9419C76.6532 30.6585 76.8029 28.784 75.2277 28.784C74.9403 28.7961 74.6626 28.8908 74.4277 29.0567C74.1928 29.2226 74.0107 29.4527 73.9031 29.7194C73.6186 30.4243 73.4909 31.1827 73.5289 31.9419V38.2504C73.526 38.3635 73.479 38.4711 73.3979 38.55C73.3168 38.629 73.2081 38.6732 73.0949 38.6732V38.6732Z" fill="#333E47"/>
<path fill-rule="evenodd" clip-rule="evenodd" d="M44.9688 38.6432C44.8955 38.7067 44.8042 38.7459 44.7077 38.7553C44.6112 38.7647 44.5141 38.7438 44.43 38.6956C43.9058 38.272 43.4622 37.7574 43.1204 37.1765C41.8669 38.4524 40.9802 38.8341 39.3563 38.8341C37.4368 38.8341 35.9401 37.6405 35.9401 35.2757C35.9114 34.4771 36.13 33.6892 36.566 33.0195C37.0019 32.3498 37.6341 31.831 38.376 31.5341C39.6144 30.999 41.3431 30.9055 42.6751 30.7521V30.4565C42.6751 29.9102 42.72 29.2704 42.3982 28.7989C42.248 28.604 42.0528 28.4484 41.8293 28.3455C41.6058 28.2425 41.3606 28.1952 41.1149 28.2077C40.6953 28.1757 40.2784 28.2968 39.9413 28.5486C39.6042 28.8004 39.3698 29.1658 39.2814 29.5772C39.2689 29.6807 39.2237 29.7775 39.1523 29.8535C39.081 29.9295 38.9873 29.9808 38.8848 30L36.6885 29.7605C36.6338 29.7563 36.5805 29.7412 36.5318 29.716C36.4832 29.6907 36.4401 29.6559 36.4051 29.6137C36.3702 29.5714 36.3442 29.5225 36.3286 29.47C36.313 29.4174 36.3081 29.3623 36.3143 29.3078C36.3143 29.3078 36.3143 29.3078 36.3143 29.2816C36.8194 26.6325 39.1804 25.8093 41.3319 25.7869H41.5002C42.6003 25.7869 44.0072 26.1012 44.8677 26.9094C45.9902 27.9495 45.8705 29.334 45.8705 30.8419V34.3964C45.8705 35.4666 46.3158 35.938 46.7348 36.5142C46.8139 36.5953 46.8582 36.7041 46.8582 36.8173C46.8582 36.9305 46.8139 37.0393 46.7348 37.1204C46.2671 37.4945 45.4402 38.2429 44.9837 38.6395L44.9688 38.6432ZM42.6751 33.0756C42.6751 33.9661 42.6976 34.707 42.2486 35.5002C42.101 35.7975 41.877 36.0502 41.5995 36.2323C41.322 36.4145 41.0011 36.5195 40.6696 36.5367C39.794 36.5367 39.2814 35.8707 39.2814 34.8791C39.2814 32.9372 41.0251 32.5817 42.6751 32.5817V33.0756Z" fill="#333E47"/>
<path fill-rule="evenodd" clip-rule="evenodd" d="M15.0392 38.6432C14.9651 38.7066 14.8733 38.7456 14.7762 38.7549C14.6792 38.7643 14.5816 38.7436 14.4967 38.6956C13.9734 38.2721 13.531 37.7574 13.1908 37.1765C11.9374 38.4524 11.0469 38.8341 9.42298 38.8341C7.5035 38.8341 6.00684 37.6405 6.00684 35.2757C5.97813 34.4771 6.1967 33.6892 6.63268 33.0195C7.06865 32.3498 7.70077 31.831 8.44266 31.5341C9.68115 30.999 11.4098 30.9055 12.7418 30.7521V30.4565C12.7418 29.9102 12.7867 29.2704 12.465 28.7989C12.3147 28.605 12.12 28.4501 11.8972 28.3472C11.6745 28.2443 11.4304 28.1965 11.1853 28.2077C10.7652 28.1748 10.3473 28.2954 10.0095 28.5473C9.67157 28.7992 9.43658 29.1651 9.34815 29.5772C9.33559 29.6807 9.29037 29.7775 9.21904 29.8535C9.14772 29.9295 9.05401 29.9808 8.95153 30L6.75517 29.7605C6.7005 29.7563 6.64724 29.7412 6.59856 29.716C6.54988 29.6907 6.50679 29.6559 6.47186 29.6137C6.43693 29.5714 6.41088 29.5225 6.39527 29.47C6.37966 29.4174 6.37481 29.3623 6.38101 29.3078C6.38101 29.3078 6.38101 29.3078 6.38101 29.2816C6.88239 26.6325 9.24712 25.8093 11.3986 25.7869H11.567C12.667 25.7869 14.0739 26.1012 14.9345 26.9094C16.057 27.9495 15.9372 29.334 15.9372 30.8419V34.3964C15.9372 35.4666 16.3825 35.938 16.8015 36.5142C16.8806 36.5953 16.9249 36.7041 16.9249 36.8173C16.9249 36.9305 16.8806 37.0393 16.8015 37.1204C16.3338 37.4945 15.5069 38.2429 15.0504 38.6395L15.0392 38.6432ZM12.7418 33.0756C12.7418 33.9661 12.7643 34.707 12.3153 35.5002C12.1674 35.7981 11.9428 36.0511 11.6646 36.2333C11.3864 36.4154 11.0647 36.5202 10.7326 36.5367C9.86075 36.5367 9.34815 35.8707 9.34815 34.8791C9.34815 32.9372 11.0918 32.5817 12.7418 32.5817V33.0756Z" fill="#333E47"/>
<path fill-rule="evenodd" clip-rule="evenodd" d="M110.998 42.8788V42.0145C110.998 41.7713 111.118 41.6029 111.372 41.6179C111.911 41.7126 112.461 41.7252 113.004 41.6553C113.306 41.5828 113.587 41.4371 113.821 41.2309C114.054 41.0248 114.233 40.7645 114.343 40.4729C114.717 39.6161 114.964 38.9276 115.121 38.4749L110.373 26.7073C110.291 26.5053 110.268 26.1349 110.665 26.1349H112.326C112.445 26.1318 112.562 26.17 112.656 26.243C112.75 26.316 112.816 26.4192 112.843 26.5352L116.289 36.0914L119.574 26.5352C119.601 26.4192 119.667 26.316 119.761 26.243C119.855 26.17 119.971 26.1318 120.09 26.1349H121.658C122.055 26.1349 122.032 26.509 121.954 26.7073L117.239 38.8416C116.629 40.458 115.817 43.0285 113.988 43.4775C113.076 43.7031 112.119 43.6562 111.234 43.3428C111.158 43.2924 111.096 43.2232 111.055 43.1419C111.013 43.0606 110.994 42.9699 110.998 42.8788V42.8788Z" fill="#333E47"/>
<path fill-rule="evenodd" clip-rule="evenodd" d="M108.783 37.9548C108.783 38.061 108.741 38.1628 108.666 38.2379C108.591 38.313 108.489 38.3552 108.383 38.3552H107.211C107.099 38.3568 106.99 38.3168 106.906 38.2428C106.822 38.1689 106.768 38.0662 106.755 37.9548L106.635 37.1578C106.063 37.6354 105.416 38.0147 104.719 38.2803C103.343 38.8154 101.756 38.9052 100.409 38.0783C99.9287 37.7501 99.5393 37.3054 99.2776 36.7859C99.0158 36.2663 98.8902 35.6888 98.9124 35.1074C98.8857 34.1782 99.2165 33.2742 99.8366 32.5818C100.686 31.6651 101.917 31.2161 103.406 31.2161C104.459 31.2049 105.509 31.3434 106.523 31.6276V30.0337C106.523 28.4023 105.838 27.6989 104.027 27.6989C102.694 27.7026 101.37 27.9277 100.11 28.3649C100.011 28.3649 99.9154 28.3255 99.8452 28.2553C99.775 28.1851 99.7356 28.09 99.7356 27.9907V27.0591C99.7426 26.9491 99.7818 26.8436 99.8483 26.7558C99.9149 26.668 100.006 26.6017 100.11 26.5652C101.423 26.0567 102.817 25.7868 104.226 25.7682C106.291 25.7682 108.746 26.2322 108.746 29.4088V37.9548H108.783ZM106.538 35.6125V33.1917C105.688 33.001 104.82 32.8994 103.949 32.8886C103.155 32.8886 102.284 33.0757 101.827 33.5658C101.494 33.9443 101.318 34.4352 101.333 34.939C101.312 35.2486 101.369 35.5586 101.5 35.84C101.631 36.1214 101.831 36.365 102.082 36.5479C102.688 36.9595 103.623 36.9221 104.506 36.6602C105.249 36.4631 105.94 36.1055 106.53 35.6125H106.538Z" fill="#333E47"/>
<path fill-rule="evenodd" clip-rule="evenodd" d="M91.5151 27.7325C94.1156 27.7325 94.8228 29.7755 94.8228 32.114C94.8228 33.693 94.5459 35.1074 93.7302 35.9043C93.1203 36.5068 92.4356 36.6527 91.4066 36.6527C90.314 36.5781 89.2664 36.1882 88.3909 35.5302V28.8401C89.2894 28.1506 90.383 27.763 91.5151 27.7325V27.7325ZM87.9942 43.2979H86.4265C86.3203 43.2979 86.2185 43.2557 86.1434 43.1806C86.0683 43.1055 86.0261 43.0037 86.0261 42.8975V42.8975V26.5539C86.0271 26.4484 86.0697 26.3475 86.1447 26.2732C86.2197 26.199 86.3209 26.1573 86.4265 26.1573H87.6238C87.7356 26.1562 87.844 26.1959 87.9287 26.2689C88.0134 26.3419 88.0686 26.4432 88.084 26.5539L88.2075 27.4108C89.287 26.4108 90.6884 25.8296 92.1587 25.7719C96.0239 25.7719 97.2923 28.9561 97.2923 32.2674C97.2923 35.8071 95.3504 38.6545 92.0539 38.6545C90.7044 38.6545 89.4014 38.1608 88.3909 37.2663V42.8788C88.3934 42.9326 88.385 42.9864 88.3663 43.0369C88.3475 43.0874 88.3187 43.1336 88.2817 43.1727C88.2447 43.2119 88.2001 43.2431 88.1507 43.2646C88.1013 43.2861 88.0481 43.2974 87.9942 43.2979V43.2979Z" fill="#333E47"/>
</svg>

<svg xmlns="http://www.w3.org/2000/svg" width="128" height="64" fill="none"><rect width="128" height="64" fill="#fff" rx="6"/><path fill="#F79C34" fill-rule="evenodd" d="M51.775 43.174c-4.284 3.162-10.5 4.846-15.835 4.846a28.692 28.692 0 0 1-19.382-7.386c-.4-.374-.04-.857.442-.576a38.932 38.932 0 0 0 19.374 5.137 38.505 38.505 0 0 0 14.78-3.023c.726-.307 1.332.475.62 1.002Z" clip-rule="evenodd"/><path fill="#F79C34" fill-rule="evenodd" d="M53.56 41.135c-.547-.703-3.622-.333-5.007-.164-.419.048-.482-.318-.104-.584 2.454-1.721 6.473-1.224 6.94-.648.468.577-.123 4.614-2.42 6.537-.356.296-.693.139-.536-.254.517-1.272 1.677-4.183 1.127-4.887Z" clip-rule="evenodd"/><path fill="#333E47" fill-rule="evenodd" d="M48.662 28.212v-1.673a.415.415 0 0 1 .408-.423h7.524a.416.416 0 0 1 .43.4v1.46c0 .243-.205.553-.565 1.055l-3.898 5.545a8.374 8.374 0 0 1 4.28.92.782.782 0 0 1 .4.648v1.785a.404.404 0 0 1-.553.374 8.606 8.606 0 0 0-7.929 0c-.262.138-.535-.142-.535-.374v-1.68a2.01 2.01 0 0 1 .28-1.153l4.49-6.462h-3.91a.419.419 0 0 1-.422-.415v-.008ZM21.273 38.673H18.99a.427.427 0 0 1-.407-.374v-11.73a.426.426 0 0 1 .437-.423h2.13a.426.426 0 0 1 .415.374v1.53h.045c.553-1.496 1.597-2.17 2.993-2.17s2.323.689 2.963 2.17a3.367 3.367 0 0 1 5.796-.886c.726.984.576 2.413.576 3.674v7.412a.426.426 0 0 1-.43.423h-2.282a.434.434 0 0 1-.408-.423v-6.222a14.36 14.36 0 0 0-.068-2.196c-.168-.79-.68-1.01-1.339-1.01a1.496 1.496 0 0 0-1.366.961c-.236.591-.213 1.579-.213 2.245v6.211a.428.428 0 0 1-.438.423h-2.282a.43.43 0 0 1-.397-.412v-6.222c0-1.306.213-3.23-1.407-3.23s-1.586 1.883-1.586 3.23v6.211a.426.426 0 0 1-.427.434h-.022ZM63.498 28.286c-1.684 0-1.793 2.294-1.793 3.742s-.018 4.49 1.77 4.49c1.789 0 1.87-2.466 1.87-3.97a10.885 10.885 0 0 0-.34-3.11 1.43 1.43 0 0 0-1.507-1.152Zm-.023-2.39c3.39 0 5.238 2.91 5.238 6.607 0 3.577-2.024 6.413-5.238 6.413-3.322 0-5.137-2.91-5.137-6.536 0-3.626 1.833-6.48 5.137-6.48v-.005ZM73.095 38.673h-2.279a.423.423 0 0 1-.408-.423V26.528a.434.434 0 0 1 .438-.374h2.137a.43.43 0 0 1 .407.325v1.807h.042c.64-1.605 1.534-2.368 3.113-2.368a2.993 2.993 0 0 1 2.664 1.38c.599.936.599 2.515.599 3.649v7.356a.435.435 0 0 1-.438.374H77.06a.434.434 0 0 1-.408-.374v-6.361c0-1.284.15-3.158-1.425-3.158a1.496 1.496 0 0 0-1.325.935 5.239 5.239 0 0 0-.374 2.223v6.308a.434.434 0 0 1-.434.423ZM44.969 38.643a.468.468 0 0 1-.539.053 5.612 5.612 0 0 1-1.31-1.52c-1.253 1.276-2.14 1.658-3.764 1.658-1.92 0-3.416-1.194-3.416-3.558a3.88 3.88 0 0 1 2.436-3.742c1.238-.535 2.967-.628 4.3-.782v-.296c0-.546.044-1.186-.278-1.657a1.522 1.522 0 0 0-1.283-.591 1.74 1.74 0 0 0-1.834 1.37.49.49 0 0 1-.396.422l-2.197-.24a.41.41 0 0 1-.374-.452v-.026c.505-2.65 2.866-3.473 5.018-3.495h.168c1.1 0 2.507.314 3.368 1.122 1.122 1.04 1.002 2.425 1.002 3.933v3.554c0 1.07.446 1.542.865 2.118a.434.434 0 0 1 0 .606c-.468.375-1.295 1.123-1.751 1.52l-.015.003Zm-2.294-5.567c0 .89.023 1.631-.426 2.424a1.87 1.87 0 0 1-1.58 1.037c-.875 0-1.388-.666-1.388-1.658 0-1.942 1.744-2.297 3.394-2.297v.494ZM15.04 38.643a.474.474 0 0 1-.543.053 5.585 5.585 0 0 1-1.306-1.52c-1.254 1.276-2.144 1.658-3.768 1.658-1.92 0-3.416-1.194-3.416-3.558a3.88 3.88 0 0 1 2.436-3.742c1.238-.535 2.967-.628 4.299-.782v-.296c0-.546.045-1.186-.277-1.657a1.53 1.53 0 0 0-1.28-.591 1.74 1.74 0 0 0-1.837 1.37.49.49 0 0 1-.396.422l-2.197-.24a.409.409 0 0 1-.374-.452v-.026c.501-2.65 2.866-3.473 5.018-3.495h.168c1.1 0 2.507.314 3.367 1.122 1.123 1.04 1.003 2.425 1.003 3.933v3.554c0 1.07.446 1.542.865 2.118a.434.434 0 0 1 0 .606c-.468.375-1.295 1.123-1.752 1.52l-.01.003Zm-2.298-5.567c0 .89.022 1.631-.427 2.424a1.87 1.87 0 0 1-1.582 1.037c-.872 0-1.385-.666-1.385-1.658 0-1.942 1.744-2.297 3.394-2.297v.494ZM110.998 42.879v-.864c0-.244.12-.412.374-.397a5.426 5.426 0 0 0 1.632.037 1.912 1.912 0 0 0 1.339-1.182c.374-.857.621-1.545.778-1.998l-4.748-11.768c-.082-.202-.105-.572.292-.572h1.661a.517.517 0 0 1 .517.4l3.446 9.556 3.285-9.556a.519.519 0 0 1 .516-.4h1.568c.397 0 .374.374.296.572l-4.715 12.135c-.61 1.616-1.422 4.187-3.251 4.636a4.797 4.797 0 0 1-2.754-.135.526.526 0 0 1-.236-.464ZM108.783 37.955a.4.4 0 0 1-.4.4h-1.172a.452.452 0 0 1-.456-.4l-.12-.797a6.725 6.725 0 0 1-1.916 1.122c-1.376.535-2.963.625-4.31-.202a3.44 3.44 0 0 1-1.497-2.97 3.63 3.63 0 0 1 .925-2.526c.849-.917 2.08-1.366 3.569-1.366a11.114 11.114 0 0 1 3.117.412v-1.594c0-1.632-.685-2.335-2.496-2.335a12.053 12.053 0 0 0-3.917.666.375.375 0 0 1-.374-.374v-.932a.561.561 0 0 1 .374-.494 11.83 11.83 0 0 1 4.116-.797c2.065 0 4.52.464 4.52 3.64v8.547h.037Zm-2.245-2.343v-2.42c-.85-.191-1.718-.293-2.589-.303-.794 0-1.665.187-2.122.677-.333.378-.509.87-.494 1.373a1.84 1.84 0 0 0 .749 1.609c.606.411 1.541.374 2.424.112a5.26 5.26 0 0 0 2.024-1.047h.008ZM91.515 27.733c2.6 0 3.308 2.043 3.308 4.381 0 1.579-.277 2.993-1.093 3.79-.61.603-1.294.749-2.323.749a5.661 5.661 0 0 1-3.016-1.123v-6.69a5.37 5.37 0 0 1 3.124-1.107Zm-3.52 15.565h-1.569a.4.4 0 0 1-.4-.4V26.553a.4.4 0 0 1 .4-.397h1.198a.46.46 0 0 1 .46.397l.123.857a6.17 6.17 0 0 1 3.952-1.64c3.865 0 5.133 3.185 5.133 6.496 0 3.54-1.942 6.387-5.238 6.387a5.526 5.526 0 0 1-3.663-1.388v5.613a.402.402 0 0 1-.397.419Z" clip-rule="evenodd"/></svg>
